src/icons/brand/glyph/VimeoIcon.svg

<svg width="24" height="24" viewBox="0 0 24 24" fill="none" xmlns="http://www.w3.org/2000/svg">
<path d="M2 7.8976L2.81238 8.99646C2.81238 8.99646 4.48758 7.63441 5.04598 8.31548C5.6043 8.99646 7.73613 17.2193 8.44773 18.7361C9.06883 20.0664 10.7821 21.8249 12.6609 20.5691C14.5386 19.3131 20.7828 13.8143 21.9005 7.32049C23.0173 0.828811 14.3864 2.18869 13.4721 7.8445C15.7571 6.4295 16.9768 8.41943 15.8075 10.6725C14.6404 12.9233 13.5739 14.3913 13.0155 14.3913C12.4581 14.3913 12.0293 12.885 11.3907 10.2523C10.7306 7.53054 10.7346 2.62776 7.99 3.1836C5.4018 3.7076 2.00004 7.89756 2.00004 7.89756L2 7.8976Z" fill="currentColor"/>
</svg>

<svg xmlns="http://www.w3.org/2000/svg" width="24" height="24" fill="currentColor" viewBox="0 0 24 24">
  <path d="m2 7.898.812 1.098s1.676-1.362 2.234-.68c.558.68 2.69 8.903 3.402 10.42.62 1.33 2.334 3.089 4.213 1.833 1.878-1.256 8.122-6.755 9.24-13.249 1.116-6.491-7.515-5.131-8.429.524 2.285-1.415 3.505.575 2.335 2.828-1.167 2.251-2.233 3.72-2.792 3.72-.557 0-.986-1.507-1.624-4.14-.66-2.721-.656-7.624-3.401-7.068C5.402 3.708 2 7.898 2 7.898Z"/>
</svg>
